!!!COM: Unknown
!!!CDT: NA
!!!OTL: National Anthem, Bahrain
!!!ENC: Davis, Matthew J.
!!Vocal Line Only
**kern
*clefG2
*k[b-]
*d:
*M4/4
=1-
1r
=2
2r
8r
8c
8.c
16f
=3
[2f
8f]
16f
16f
8.f
16f
=4
!Measures 4-11 contain repeats, and are realized
[2cc
8cc]
16cc
16cc
8.cc
16cc
=5
[2a
8a]
8a
8a
8.a
16a
=6
4b-
8.b-
16b-
8.cc
16b-
8.a
16g
=7
2.f
4r
=8
4f
8.g
16g
8a
16a
16a
12a
12f
12a
=9
8cc
16cc
16cc
12cc
(12a
12cc)
8ff
16ff
16ff
12ff
(12cc
12ff)
=10
4ff
8cc
8b-
8a
8c
8d
8e
=11
!First Ending
[2f
8f]
16f
16f
8.f
16f
=4
!Measures 4-11 contain repeats, and are realized
[2cc
8cc]
16cc
16cc
8.cc
16cc
=5
[2a
8a]
8a
8a
8.a
16a
=6
4b-
8.b-
16b-
8.cc
16b-
8.a
16g
=7
2.f
4r
=8
4f
8.g
16g
8a
16a
16a
12a
12f
12a
=9
8cc
16cc
16cc
12cc
(12a
12cc)
8ff
16ff
16ff
12ff
(12cc
12ff)
=10
4ff
8cc
8b-
8a
8c
8d
8e
==12
!Second Ending
2.f
4r
==|!
*-
